packages/ui/src/lib/components/Stage/components/Scene/luts/Warm.cube
#Created by: Adobe Photoshop Export Color Lookup Plugin
TITLE "Warm"
#LUT size
LUT_3D_SIZE 8
#data domain
#LUT data points
DOMAIN_MIN 0.000000 0.000000 0.000000
DOMAIN_MAX 0.903226 0.903226 0.903226
0.022552 0.022552 0.022552
0.159515 0.024353 0.037170
0.287445 0.026184 0.051666
0.406403 0.028015 0.066101
0.516602 0.029846 0.080414
0.629333 0.031647 0.094666
0.751068 0.033508 0.108795
0.881775 0.035278 0.122833
0.037170 0.159515 0.024353
0.159515 0.147461 0.024353
0.287445 0.137024 0.026184
0.406403 0.126587 0.028015
0.516602 0.116058 0.029846
0.629333 0.117798 0.044434
0.751068 0.119568 0.058868
0.881775 0.121338 0.073273
0.051666 0.287445 0.026184
0.185059 0.287445 0.026184
0.287445 0.264893 0.026184
0.406403 0.255157 0.028015
0.516602 0.245331 0.029846
0.629333 0.235443 0.031647
0.751068 0.225494 0.033508
0.881775 0.215515 0.035278
0.066101 0.406403 0.028015
0.198608 0.406403 0.028015
0.322327 0.406403 0.028015
0.406403 0.374908 0.028015
0.516602 0.365814 0.029846
0.629333 0.356628 0.031647
0.751068 0.347382 0.033508
0.881775 0.338043 0.035278
0.080414 0.516602 0.029846
0.212006 0.516602 0.029846
0.334808 0.516602 0.029846
0.448822 0.516602 0.029846
0.516602 0.477509 0.029846
0.629333 0.469055 0.031647
0.751068 0.460480 0.033508
0.881775 0.451874 0.035278
0.094666 0.629333 0.031647
0.225311 0.629333 0.031647
0.347137 0.629333 0.031647
0.460266 0.629333 0.031647
0.557922 0.618683 0.031647
0.629333 0.577057 0.031647
0.751068 0.568268 0.033508
0.881775 0.559570 0.035278
0.108795 0.751068 0.033508
0.238525 0.751068 0.033508
0.359467 0.751068 0.033508
0.471649 0.751068 0.033508
0.579803 0.751068 0.033508
0.674011 0.728333 0.033508
0.751068 0.683655 0.033508
0.881775 0.674225 0.035278
0.122833 0.881775 0.035278
0.251617 0.881775 0.035278
0.371613 0.881775 0.035278
0.482880 0.881775 0.035278
0.591614 0.881775 0.035278
0.708801 0.881775 0.035278
0.799133 0.845276 0.035278
0.881775 0.797699 0.035278
0.024353 0.037170 0.159515
0.147461 0.024353 0.159515
0.287445 0.026184 0.185059
0.406403 0.028015 0.198608
0.516602 0.029846 0.212006
0.629333 0.031647 0.225311
0.751068 0.033508 0.238525
0.881775 0.035278 0.251617
0.024353 0.159515 0.147461
0.161224 0.161224 0.161224
0.289032 0.162933 0.174866
0.407898 0.164642 0.188446
0.518005 0.166351 0.201965
0.630829 0.168030 0.215332
0.752686 0.169739 0.228607
0.883545 0.171448 0.241791
0.026184 0.287445 0.137024
0.174866 0.289032 0.162933
0.289032 0.277832 0.162933
0.407898 0.268127 0.164642
0.518005 0.258392 0.166351
0.630829 0.248596 0.168030
0.752686 0.250214 0.181671
0.883545 0.251831 0.195160
0.028015 0.406403 0.126587
0.188446 0.407898 0.164642
0.312866 0.407898 0.164642
0.407898 0.386993 0.164642
0.518005 0.377899 0.166351
0.630829 0.368835 0.168030
0.752686 0.359619 0.169739
0.883545 0.350433 0.171448
0.029846 0.516602 0.116058
0.201965 0.518005 0.166351
0.325409 0.518005 0.166351
0.440125 0.518005 0.166351
0.518005 0.488739 0.166351
0.630829 0.480347 0.168030
0.752686 0.471863 0.169739
0.883545 0.463318 0.171448
0.044434 0.629333 0.117798
0.215332 0.630829 0.168030
0.337860 0.630829 0.168030
0.451660 0.630829 0.168030
0.559326 0.630829 0.168030
0.630829 0.588806 0.168030
0.752686 0.579987 0.169739
0.883545 0.571198 0.171448
0.058868 0.751068 0.119568
0.228607 0.752686 0.169739
0.350250 0.752686 0.169739
0.463104 0.752686 0.169739
0.570984 0.752686 0.169739
0.675598 0.741241 0.169739
0.752686 0.696289 0.169739
0.883545 0.686737 0.171448
0.073273 0.881775 0.121338
0.241791 0.883545 0.171448
0.362549 0.883545 0.171448
0.474457 0.883545 0.171448
0.582733 0.883545 0.171448
0.699249 0.883545 0.171448
0.800812 0.859131 0.171448
0.883545 0.811157 0.171448
0.026184 0.051666 0.287445
0.137024 0.026184 0.287445
0.264893 0.026184 0.287445
0.406403 0.028015 0.322327
0.516602 0.029846 0.334808
0.629333 0.031647 0.347137
0.751068 0.033508 0.359467
0.881775 0.035278 0.371613
0.026184 0.185059 0.287445
0.162933 0.174866 0.289032
0.277832 0.162933 0.289032
0.407898 0.164642 0.312866
0.518005 0.166351 0.325409
0.630829 0.168030 0.337860
0.752686 0.169739 0.350250
0.883545 0.171448 0.362549
0.026184 0.287445 0.264893
0.162933 0.289032 0.277832
0.290649 0.290649 0.290649
0.409363 0.292236 0.303345
0.519379 0.293823 0.316010
0.632355 0.295410 0.328552
0.754303 0.296967 0.340973
0.885254 0.298584 0.353302
0.028015 0.406403 0.255157
0.164642 0.407898 0.268127
0.303345 0.409363 0.292236
0.409363 0.398956 0.292236
0.519379 0.389984 0.293823
0.632355 0.380951 0.295410
0.754303 0.371857 0.296967
0.885254 0.373383 0.309692
0.029846 0.516602 0.245331
0.166351 0.518005 0.258392
0.316010 0.519379 0.293823
0.431427 0.519379 0.293823
0.519379 0.499878 0.293823
0.632355 0.491516 0.295410
0.754303 0.483093 0.296967
0.885254 0.474701 0.298584
0.031647 0.629333 0.235443
0.168030 0.630829 0.248596
0.328552 0.632355 0.295410
0.442993 0.632355 0.295410
0.550690 0.632355 0.295410
0.632355 0.600677 0.295410
0.754303 0.591797 0.296967
0.885254 0.582916 0.298584
0.033508 0.751068 0.225494
0.181671 0.752686 0.250214
0.340973 0.754303 0.296967
0.454529 0.754303 0.296967
0.562256 0.754303 0.296967
0.677155 0.754303 0.296967
0.754303 0.709015 0.296967
0.885254 0.699432 0.298584
0.035278 0.881775 0.215515
0.195160 0.883545 0.251831
0.353302 0.885254 0.298584
0.465942 0.885254 0.298584
0.573914 0.885254 0.298584
0.689728 0.885254 0.298584
0.802490 0.873016 0.298584
0.885254 0.824738 0.298584
0.028015 0.066101 0.406403
0.126587 0.028015 0.406403
0.255157 0.028015 0.406403
0.374908 0.028015 0.406403
0.516602 0.029846 0.448822
0.629333 0.031647 0.460266
0.751068 0.033508 0.471649
0.881775 0.035278 0.482880
0.028015 0.198608 0.406403
0.164642 0.188446 0.407898
0.268127 0.164642 0.407898
0.386993 0.164642 0.407898
0.518005 0.166351 0.440125
0.630829 0.168030 0.451660
0.752686 0.169739 0.463104
0.883545 0.171448 0.474457
0.028015 0.322327 0.406403
0.164642 0.312866 0.407898
0.292236 0.303345 0.409363
0.398956 0.292236 0.409363
0.519379 0.293823 0.431427
0.632355 0.295410 0.442993
0.754303 0.296967 0.454529
0.885254 0.298584 0.465942
0.028015 0.406403 0.374908
0.164642 0.407898 0.386993
0.292236 0.409363 0.398956
0.410858 0.410858 0.410858
0.520782 0.412292 0.422638
0.633850 0.413788 0.434296
0.755951 0.415253 0.445892
0.887024 0.416718 0.457367
0.029846 0.516602 0.365814
0.166351 0.518005 0.377899
0.293823 0.519379 0.389984
0.422638 0.520782 0.412292
0.520782 0.510956 0.412292
0.633850 0.502625 0.413788
0.755951 0.494293 0.415253
0.887024 0.485901 0.416718
0.031647 0.629333 0.356628
0.168030 0.630829 0.368835
0.295410 0.632355 0.380951
0.434296 0.633850 0.413788
0.542084 0.633850 0.413788
0.633850 0.612701 0.413788
0.755951 0.603699 0.415253
0.887024 0.594696 0.416718
0.033508 0.751068 0.347382
0.169739 0.752686 0.359619
0.296967 0.754303 0.371857
0.445892 0.755951 0.415253
0.553589 0.755951 0.415253
0.667786 0.755951 0.415253
0.755951 0.721832 0.415253
0.887024 0.712158 0.416718
0.035278 0.881775 0.338043
0.171448 0.883545 0.350433
0.309692 0.885254 0.373383
0.457367 0.887024 0.416718
0.565125 0.887024 0.416718
0.680267 0.887024 0.416718
0.804169 0.887024 0.416718
0.887024 0.838379 0.416718
0.029846 0.080414 0.516602
0.116058 0.029846 0.516602
0.245331 0.029846 0.516602
0.365814 0.029846 0.516602
0.477509 0.029846 0.516602
0.618683 0.031647 0.557922
0.751068 0.033508 0.579803
0.881775 0.035278 0.591614
0.029846 0.212006 0.516602
0.166351 0.201965 0.518005
0.258392 0.166351 0.518005
0.377899 0.166351 0.518005
0.488739 0.166351 0.518005
0.630829 0.168030 0.559326
0.752686 0.169739 0.570984
0.883545 0.171448 0.582733
0.029846 0.334808 0.516602
0.166351 0.325409 0.518005
0.293823 0.316010 0.519379
0.389984 0.293823 0.519379
0.499878 0.293823 0.519379
0.632355 0.295410 0.550690
0.754303 0.296967 0.562256
0.885254 0.298584 0.573914
0.029846 0.448822 0.516602
0.166351 0.440125 0.518005
0.293823 0.431427 0.519379
0.412292 0.422638 0.520782
0.510956 0.412292 0.520782
0.633850 0.413788 0.542084
0.755951 0.415253 0.553589
0.887024 0.416718 0.565125
0.029846 0.516602 0.477509
0.166351 0.518005 0.488739
0.293823 0.519379 0.499878
0.412292 0.520782 0.510956
0.522217 0.522217 0.522217
0.635376 0.523621 0.533539
0.757599 0.525024 0.544922
0.888794 0.526428 0.556427
0.031647 0.629333 0.469055
0.168030 0.630829 0.480347
0.295410 0.632355 0.491516
0.413788 0.633850 0.502625
0.533539 0.635376 0.523621
0.635376 0.624756 0.523621
0.757599 0.615662 0.525024
0.888794 0.606659 0.526428
0.033508 0.751068 0.460480
0.169739 0.752686 0.471863
0.296967 0.754303 0.483093
0.415253 0.755951 0.494293
0.544922 0.757599 0.525024
0.658447 0.757599 0.525024
0.757599 0.734741 0.525024
0.888794 0.725037 0.526428
0.035278 0.881775 0.451874
0.171448 0.883545 0.463318
0.298584 0.885254 0.474701
0.416718 0.887024 0.485901
0.556427 0.888794 0.526428
0.670868 0.888794 0.526428
0.794098 0.888794 0.526428
0.888794 0.852142 0.526428
0.031647 0.094666 0.629333
0.117798 0.044434 0.629333
0.235443 0.031647 0.629333
0.356628 0.031647 0.629333
0.469055 0.031647 0.629333
0.577057 0.031647 0.629333
0.728333 0.033508 0.674011
0.881775 0.035278 0.708801
0.031647 0.225311 0.629333
0.168030 0.215332 0.630829
0.248596 0.168030 0.630829
0.368835 0.168030 0.630829
0.480347 0.168030 0.630829
0.588806 0.168030 0.630829
0.741241 0.169739 0.675598
0.883545 0.171448 0.699249
0.031647 0.347137 0.629333
0.168030 0.337860 0.630829
0.295410 0.328552 0.632355
0.380951 0.295410 0.632355
0.491516 0.295410 0.632355
0.600677 0.295410 0.632355
0.754303 0.296967 0.677155
0.885254 0.298584 0.689728
0.031647 0.460266 0.629333
0.168030 0.451660 0.630829
0.295410 0.442993 0.632355
0.413788 0.434296 0.633850
0.502625 0.413788 0.633850
0.612701 0.413788 0.633850
0.755951 0.415253 0.667786
0.887024 0.416718 0.680267
0.031647 0.557922 0.618683
0.168030 0.559326 0.630829
0.295410 0.550690 0.632355
0.413788 0.542084 0.633850
0.523621 0.533539 0.635376
0.624756 0.523621 0.635376
0.757599 0.525024 0.658447
0.888794 0.526428 0.670868
0.031647 0.629333 0.577057
0.168030 0.630829 0.588806
0.295410 0.632355 0.600677
0.413788 0.633850 0.612701
0.523621 0.635376 0.624756
0.636902 0.636902 0.636902
0.759186 0.638428 0.649170
0.890533 0.639923 0.661530
0.033508 0.751068 0.568268
0.169739 0.752686 0.579987
0.296967 0.754303 0.591797
0.415253 0.755951 0.603699
0.525024 0.757599 0.615662
0.649170 0.759186 0.638428
0.759186 0.747742 0.638428
0.890533 0.737946 0.639923
0.035278 0.881775 0.559570
0.171448 0.883545 0.571198
0.298584 0.885254 0.582916
0.416718 0.887024 0.594696
0.526428 0.888794 0.606659
0.661530 0.890533 0.639923
0.784027 0.890533 0.639923
0.890533 0.865997 0.639923
0.033508 0.108795 0.751068
0.119568 0.058868 0.751068
0.225494 0.033508 0.751068
0.347382 0.033508 0.751068
0.460480 0.033508 0.751068
0.568268 0.033508 0.751068
0.683655 0.033508 0.751068
0.845276 0.035278 0.799133
0.033508 0.238525 0.751068
0.169739 0.228607 0.752686
0.250214 0.181671 0.752686
0.359619 0.169739 0.752686
0.471863 0.169739 0.752686
0.579987 0.169739 0.752686
0.696289 0.169739 0.752686
0.859131 0.171448 0.800812
0.033508 0.359467 0.751068
0.169739 0.350250 0.752686
0.296967 0.340973 0.754303
0.371857 0.296967 0.754303
0.483093 0.296967 0.754303
0.591797 0.296967 0.754303
0.709015 0.296967 0.754303
0.873016 0.298584 0.802490
0.033508 0.471649 0.751068
0.169739 0.463104 0.752686
0.296967 0.454529 0.754303
0.415253 0.445892 0.755951
0.494293 0.415253 0.755951
0.603699 0.415253 0.755951
0.721832 0.415253 0.755951
0.887024 0.416718 0.804169
0.033508 0.579803 0.751068
0.169739 0.570984 0.752686
0.296967 0.562256 0.754303
0.415253 0.553589 0.755951
0.525024 0.544922 0.757599
0.615662 0.525024 0.757599
0.734741 0.525024 0.757599
0.888794 0.526428 0.794098
0.033508 0.674011 0.728333
0.169739 0.675598 0.741241
0.296967 0.677155 0.754303
0.415253 0.667786 0.755951
0.525024 0.658447 0.757599
0.638428 0.649170 0.759186
0.747742 0.638428 0.759186
0.890533 0.639923 0.784027
0.033508 0.751068 0.683655
0.169739 0.752686 0.696289
0.296967 0.754303 0.709015
0.415253 0.755951 0.721832
0.525024 0.757599 0.734741
0.638428 0.759186 0.747742
0.760864 0.760864 0.760864
0.892303 0.762482 0.774048
0.035278 0.881775 0.674225
0.171448 0.883545 0.686737
0.298584 0.885254 0.699432
0.416718 0.887024 0.712158
0.526428 0.888794 0.725037
0.639923 0.890533 0.737946
0.774048 0.892303 0.762482
0.892303 0.879974 0.762482
0.035278 0.122833 0.881775
0.121338 0.073273 0.881775
0.215515 0.035278 0.881775
0.338043 0.035278 0.881775
0.451874 0.035278 0.881775
0.559570 0.035278 0.881775
0.674225 0.035278 0.881775
0.797699 0.035278 0.881775
0.035278 0.251617 0.881775
0.171448 0.241791 0.883545
0.251831 0.195160 0.883545
0.350433 0.171448 0.883545
0.463318 0.171448 0.883545
0.571198 0.171448 0.883545
0.686737 0.171448 0.883545
0.811157 0.171448 0.883545
0.035278 0.371613 0.881775
0.171448 0.362549 0.883545
0.298584 0.353302 0.885254
0.373383 0.309692 0.885254
0.474701 0.298584 0.885254
0.582916 0.298584 0.885254
0.699432 0.298584 0.885254
0.824738 0.298584 0.885254
0.035278 0.482880 0.881775
0.171448 0.474457 0.883545
0.298584 0.465942 0.885254
0.416718 0.457367 0.887024
0.485901 0.416718 0.887024
0.594696 0.416718 0.887024
0.712158 0.416718 0.887024
0.838379 0.416718 0.887024
0.035278 0.591614 0.881775
0.171448 0.582733 0.883545
0.298584 0.573914 0.885254
0.416718 0.565125 0.887024
0.526428 0.556427 0.888794
0.606659 0.526428 0.888794
0.725037 0.526428 0.888794
0.852142 0.526428 0.888794
0.035278 0.708801 0.881775
0.171448 0.699249 0.883545
0.298584 0.689728 0.885254
0.416718 0.680267 0.887024
0.526428 0.670868 0.888794
0.639923 0.661530 0.890533
0.737946 0.639923 0.890533
0.865997 0.639923 0.890533
0.035278 0.799133 0.845276
0.171448 0.800812 0.859131
0.298584 0.802490 0.873016
0.416718 0.804169 0.887024
0.526428 0.794098 0.888794
0.639923 0.784027 0.890533
0.762482 0.774048 0.892303
0.879974 0.762482 0.892303
0.035278 0.881775 0.797699
0.171448 0.883545 0.811157
0.298584 0.885254 0.824738
0.416718 0.887024 0.838379
0.526428 0.888794 0.852142
0.639923 0.890533 0.865997
0.762482 0.892303 0.879974
0.894073 0.894073 0.894073
