packages/ui/src/lib/components/Stage/components/Scene/luts/Warm.cube
#Created by: Adobe Photoshop Export Color Lookup Plugin
TITLE "Warm"
#LUT size
LUT_3D_SIZE 5
#data domain
#LUT data points
DOMAIN_MIN 0.000000 0.000000 0.000000
DOMAIN_MAX 0.903226 0.903226 0.903226
0.022552 0.022552 0.022552
0.256317 0.025757 0.048065
0.462524 0.028931 0.073273
0.658905 0.032104 0.098236
0.881775 0.035278 0.122833
0.048065 0.256317 0.025757
0.256317 0.236237 0.025757
0.462524 0.218842 0.028931
0.658905 0.201263 0.032104
0.881775 0.183533 0.035278
0.073273 0.462524 0.028931
0.298584 0.462524 0.028931
0.462524 0.427124 0.028931
0.658905 0.411713 0.032104
0.881775 0.396088 0.035278
0.098236 0.658905 0.032104
0.320648 0.658905 0.032104
0.516510 0.658905 0.032104
0.658905 0.602997 0.032104
0.881775 0.587402 0.035278
0.122833 0.881775 0.035278
0.342468 0.881775 0.035278
0.536255 0.881775 0.035278
0.739441 0.881775 0.035278
0.881775 0.797699 0.035278
0.025757 0.048065 0.256317
0.236237 0.025757 0.256317
0.462524 0.028931 0.298584
0.658905 0.032104 0.320648
0.881775 0.035278 0.342468
0.025757 0.256317 0.236237
0.259155 0.259155 0.259155
0.464966 0.261993 0.281799
0.661591 0.264801 0.304108
0.884827 0.267639 0.326111
0.028931 0.462524 0.218842
0.281799 0.464966 0.261993
0.464966 0.447449 0.261993
0.661591 0.432220 0.264801
0.884827 0.416809 0.267639
0.032104 0.658905 0.201263
0.304108 0.661591 0.264801
0.501831 0.661591 0.264801
0.661591 0.624054 0.264801
0.884827 0.608246 0.267639
0.035278 0.881775 0.183533
0.326111 0.884827 0.267639
0.521362 0.884827 0.267639
0.722473 0.884827 0.267639
0.884827 0.821320 0.267639
0.028931 0.073273 0.462524
0.218842 0.028931 0.462524
0.427124 0.028931 0.462524
0.658905 0.032104 0.516510
0.881775 0.035278 0.536255
0.028931 0.298584 0.462524
0.261993 0.281799 0.464966
0.447449 0.261993 0.464966
0.661591 0.264801 0.501831
0.884827 0.267639 0.521362
0.028931 0.462524 0.427124
0.261993 0.464966 0.447449
0.467499 0.467499 0.467499
0.664307 0.469940 0.487183
0.887909 0.472443 0.506653
0.032104 0.658905 0.411713
0.264801 0.661591 0.432220
0.487183 0.664307 0.469940
0.664307 0.645355 0.469940
0.887909 0.629333 0.472443
0.035278 0.881775 0.396088
0.267639 0.884827 0.416809
0.506653 0.887909 0.472443
0.705627 0.887909 0.472443
0.887909 0.845276 0.472443
0.032104 0.098236 0.658905
0.201263 0.032104 0.658905
0.411713 0.032104 0.658905
0.602997 0.032104 0.658905
0.881775 0.035278 0.739441
0.032104 0.320648 0.658905
0.264801 0.304108 0.661591
0.432220 0.264801 0.661591
0.624054 0.264801 0.661591
0.884827 0.267639 0.722473
0.032104 0.516510 0.658905
0.264801 0.501831 0.661591
0.469940 0.487183 0.664307
0.645355 0.469940 0.664307
0.887909 0.472443 0.705627
0.032104 0.658905 0.602997
0.264801 0.661591 0.624054
0.469940 0.664307 0.645355
0.667023 0.667023 0.667023
0.890961 0.669739 0.688934
0.035278 0.881775 0.587402
0.267639 0.884827 0.608246
0.472443 0.887909 0.629333
0.688934 0.890961 0.669739
0.890961 0.869507 0.669739
0.035278 0.122833 0.881775
0.183533 0.035278 0.881775
0.396088 0.035278 0.881775
0.587402 0.035278 0.881775
0.797699 0.035278 0.881775
0.035278 0.342468 0.881775
0.267639 0.326111 0.884827
0.416809 0.267639 0.884827
0.608246 0.267639 0.884827
0.821320 0.267639 0.884827
0.035278 0.536255 0.881775
0.267639 0.521362 0.884827
0.472443 0.506653 0.887909
0.629333 0.472443 0.887909
0.845276 0.472443 0.887909
0.035278 0.739441 0.881775
0.267639 0.722473 0.884827
0.472443 0.705627 0.887909
0.669739 0.688934 0.890961
0.869507 0.669739 0.890961
0.035278 0.881775 0.797699
0.267639 0.884827 0.821320
0.472443 0.887909 0.845276
0.669739 0.890961 0.869507
0.894073 0.894073 0.894073
