packages/ui/src/lib/components/Stage/components/Scene/luts/Warm.cube
#Created by: Adobe Photoshop Export Color Lookup Plugin
TITLE "Warm"
#LUT size
LUT_3D_SIZE 32
#data domain
DOMAIN_MIN 0.0 0.0 0.0
DOMAIN_MAX 1.0 1.0 1.0
#LUT data points
0.022552 0.022552 0.022552
0.057617 0.023010 0.026215
0.092133 0.023438 0.029877
0.126129 0.023895 0.033539
0.159515 0.024353 0.037170
0.192322 0.024811 0.040802
0.224609 0.025269 0.044434
0.256317 0.025757 0.048065
0.287445 0.026184 0.051666
0.318054 0.026672 0.055267
0.348053 0.027130 0.058899
0.377533 0.027557 0.062500
0.406403 0.028015 0.066101
0.434753 0.028473 0.069672
0.462524 0.028931 0.073273
0.489716 0.029388 0.076843
0.516602 0.029846 0.080414
0.543945 0.030273 0.084015
0.571808 0.030731 0.087585
0.600311 0.031219 0.091095
0.629333 0.031647 0.094666
0.658905 0.032104 0.098236
0.689026 0.032532 0.101715
0.719788 0.033020 0.105286
0.751068 0.033508 0.108795
0.782867 0.033936 0.112335
0.815277 0.034393 0.115845
0.848236 0.034851 0.119324
0.881775 0.035278 0.122833
0.915894 0.035767 0.126343
0.950531 0.036224 0.129822
0.985748 0.036652 0.133301
0.026215 0.057617 0.023010
0.057617 0.054474 0.023010
0.092133 0.051727 0.023438
0.126129 0.049011 0.023895
0.159515 0.046326 0.024353
0.192322 0.046753 0.028046
0.224609 0.047211 0.031647
0.256317 0.047638 0.035370
0.287445 0.048096 0.039001
0.318054 0.048584 0.042633
0.348053 0.049011 0.046204
0.377533 0.049469 0.049896
0.406403 0.049957 0.053497
0.434753 0.050385 0.057098
0.462524 0.050812 0.060669
0.489716 0.051270 0.064301
0.516602 0.051697 0.067902
0.543945 0.052185 0.071472
0.571808 0.052643 0.075043
0.600311 0.053070 0.078583
0.629333 0.053528 0.082214
0.658905 0.053986 0.085754
0.689026 0.054413 0.089355
0.719788 0.054901 0.092926
0.751068 0.055328 0.096405
0.782867 0.055756 0.099945
0.815277 0.056244 0.103485
0.848236 0.056702 0.107025
0.881775 0.057129 0.110565
0.915894 0.057587 0.114075
0.950531 0.058014 0.117523
0.985748 0.058472 0.121094
0.029877 0.092133 0.023438
0.064362 0.092133 0.023438
0.092133 0.085938 0.023438
0.126129 0.083252 0.023895
0.159515 0.080566 0.024353
0.192322 0.077911 0.024811
0.224609 0.075195 0.025269
0.256317 0.072510 0.025757
0.287445 0.069824 0.026184
0.318054 0.070282 0.029877
0.348053 0.070709 0.033508
0.377533 0.071167 0.037140
0.406403 0.071625 0.040771
0.434753 0.072052 0.044434
0.462524 0.072510 0.048065
0.489716 0.072968 0.051666
0.516602 0.073395 0.055267
0.543945 0.073853 0.058899
0.571808 0.074280 0.062500
0.600311 0.074707 0.066101
0.629333 0.075195 0.069641
0.658905 0.075623 0.073273
0.689026 0.076080 0.076843
0.719788 0.076508 0.080444
0.751068 0.076935 0.084015
0.782867 0.077393 0.087524
0.815277 0.077881 0.091095
0.848236 0.078278 0.094666
0.881775 0.078735 0.098145
0.915894 0.079193 0.101776
0.950531 0.079651 0.105286
0.985748 0.080078 0.108795
0.033539 0.126129 0.023895
0.067993 0.126129 0.023895
0.101868 0.126129 0.023895
0.126129 0.116913 0.023895
0.159515 0.114288 0.024353
0.192322 0.111664 0.024811
0.224609 0.109009 0.025269
0.256317 0.106384 0.025757
0.287445 0.103729 0.026184
0.318054 0.101044 0.026672
0.348053 0.098389 0.027130
0.377533 0.095734 0.027557
0.406403 0.093079 0.028015
0.434753 0.093506 0.031647
0.462524 0.093994 0.035309
0.489716 0.094391 0.039001
0.516602 0.094849 0.042603
0.543945 0.095276 0.046204
0.571808 0.095703 0.049835
0.600311 0.096191 0.053467
0.629333 0.096619 0.057098
0.658905 0.097046 0.060699
0.689026 0.097504 0.064240
0.719788 0.097961 0.067902
0.751068 0.098389 0.071472
0.782867 0.098816 0.074982
0.815277 0.099243 0.078583
0.848236 0.099701 0.082214
0.881775 0.100128 0.085724
0.915894 0.100586 0.089294
0.950531 0.101013 0.092834
0.985748 0.101471 0.096436
0.037170 0.159515 0.024353
0.071533 0.159515 0.024353
0.105438 0.159515 0.024353
0.138733 0.159515 0.024353
0.159515 0.147461 0.024353
0.192322 0.144836 0.024811
0.224609 0.142273 0.025269
0.256317 0.139648 0.025757
0.287445 0.137024 0.026184
0.318054 0.134430 0.026672
0.348053 0.131805 0.027130
0.377533 0.129242 0.027557
0.406403 0.126587 0.028015
0.434753 0.123962 0.028473
0.462524 0.121338 0.028931
0.489716 0.118683 0.029388
0.516602 0.116058 0.029846
0.543945 0.116516 0.033508
0.571808 0.116943 0.037170
0.600311 0.117401 0.040802
0.629333 0.117798 0.044434
0.658905 0.118256 0.048065
0.689026 0.118683 0.051636
0.719788 0.119141 0.055267
0.751068 0.119568 0.058868
0.782867 0.119995 0.062500
0.815277 0.120453 0.066101
0.848236 0.120880 0.069641
0.881775 0.121338 0.073273
0.915894 0.121735 0.076843
0.950531 0.122192 0.080414
0.985748 0.122589 0.083923
0.040802 0.192322 0.024811
0.075134 0.192322 0.024811
0.108948 0.192322 0.024811
0.142212 0.192322 0.024811
0.171936 0.189362 0.024811
0.192322 0.177521 0.024811
0.224609 0.174927 0.025269
0.256317 0.172424 0.025757
0.287445 0.169830 0.026184
0.318054 0.167297 0.026672
0.348053 0.164703 0.027130
0.377533 0.162140 0.027557
0.406403 0.159576 0.028015
0.434753 0.156952 0.028473
0.462524 0.154419 0.028931
0.489716 0.151794 0.029388
0.516602 0.149200 0.029846
0.543945 0.146637 0.030273
0.571808 0.144012 0.030731
0.600311 0.141418 0.031219
0.629333 0.138824 0.031647
0.658905 0.139252 0.035370
0.689026 0.139679 0.038940
0.719788 0.140106 0.042633
0.751068 0.140533 0.046234
0.782867 0.140961 0.049835
0.815277 0.141418 0.053436
0.848236 0.141846 0.057037
0.881775 0.142273 0.060699
0.915894 0.142700 0.064301
0.950531 0.143158 0.067841
0.985748 0.143555 0.071411
0.044434 0.224609 0.025269
0.078735 0.224609 0.025269
0.112457 0.224609 0.025269
0.145660 0.224609 0.025269
0.178314 0.224609 0.025269
0.204559 0.218811 0.025269
0.224609 0.207123 0.025269
0.256317 0.204590 0.025757
0.287445 0.202057 0.026184
0.318054 0.199585 0.026672
0.348053 0.197052 0.027130
0.377533 0.194489 0.027557
0.406403 0.191956 0.028015
0.434753 0.189392 0.028473
0.462524 0.186859 0.028931
0.489716 0.184326 0.029388
0.516602 0.181793 0.029846
0.543945 0.179260 0.030273
0.571808 0.176666 0.030731
0.600311 0.174103 0.031219
0.629333 0.171600 0.031647
0.658905 0.168976 0.032104
0.689026 0.166443 0.032532
0.719788 0.163818 0.033020
0.751068 0.161316 0.033508
0.782867 0.161743 0.037140
0.815277 0.162140 0.040771
0.848236 0.162567 0.044434
0.881775 0.162994 0.048004
0.915894 0.163452 0.051666
0.950531 0.163849 0.055267
0.985748 0.164276 0.058807
0.048065 0.256317 0.025757
0.082306 0.256317 0.025757
0.115967 0.256317 0.025757
0.149109 0.256317 0.025757
0.181702 0.256317 0.025757
0.213715 0.256317 0.025757
0.236572 0.247742 0.025757
0.256317 0.236237 0.025757
0.287445 0.233765 0.026184
0.318054 0.231293 0.026672
0.348053 0.228790 0.027130
0.377533 0.226288 0.027557
0.406403 0.223816 0.028015
0.434753 0.221344 0.028473
0.462524 0.218842 0.028931
0.489716 0.216309 0.029388
0.516602 0.213806 0.029846
0.543945 0.211304 0.030273
0.571808 0.208801 0.030731
0.600311 0.206268 0.031219
0.629333 0.203827 0.031647
0.658905 0.201263 0.032104
0.689026 0.198730 0.032532
0.719788 0.196259 0.033020
0.751068 0.193695 0.033508
0.782867 0.191162 0.033936
0.815277 0.188629 0.034393
0.848236 0.186096 0.034851
0.881775 0.183533 0.035278
0.915894 0.183960 0.038940
0.950531 0.184357 0.042572
0.985748 0.184784 0.046173
0.051666 0.287445 0.026184
0.085846 0.287445 0.026184
0.119476 0.287445 0.026184
0.152557 0.287445 0.026184
0.185059 0.287445 0.026184
0.217072 0.287445 0.026184
0.248505 0.287445 0.026184
0.268066 0.276215 0.026184
0.287445 0.264893 0.026184
0.318054 0.262482 0.026672
0.348053 0.260040 0.027130
0.377533 0.257568 0.027557
0.406403 0.255157 0.028015
0.434753 0.252686 0.028473
0.462524 0.250275 0.028931
0.489716 0.247803 0.029388
0.516602 0.245331 0.029846
0.543945 0.242859 0.030273
0.571808 0.240356 0.030731
0.600311 0.237885 0.031219
0.629333 0.235443 0.031647
0.658905 0.232941 0.032104
0.689026 0.230438 0.032532
0.719788 0.228027 0.033020
0.751068 0.225494 0.033508
0.782867 0.223053 0.033936
0.815277 0.220520 0.034393
0.848236 0.218048 0.034851
0.881775 0.215515 0.035278
0.915894 0.213043 0.035767
0.950531 0.210510 0.036224
0.985748 0.207977 0.036652
0.055267 0.318054 0.026672
0.089417 0.318054 0.026672
0.122986 0.318054 0.026672
0.156006 0.318054 0.026672
0.188477 0.318054 0.026672
0.220428 0.318054 0.026672
0.251801 0.318054 0.026672
0.279785 0.315308 0.026672
0.299011 0.304260 0.026672
0.318054 0.293091 0.026672
0.348053 0.290710 0.027130
0.377533 0.288300 0.027557
0.406403 0.285889 0.028015
0.434753 0.283508 0.028473
0.462524 0.281097 0.028931
0.489716 0.278687 0.029388
0.516602 0.276276 0.029846
0.543945 0.273804 0.030273
0.571808 0.271423 0.030731
0.600311 0.268982 0.031219
0.629333 0.266541 0.031647
0.658905 0.264099 0.032104
0.689026 0.261688 0.032532
0.719788 0.259277 0.033020
0.751068 0.256805 0.033508
0.782867 0.254395 0.033936
0.815277 0.251923 0.034393
0.848236 0.249420 0.034851
0.881775 0.247009 0.035278
0.915894 0.244507 0.035767
0.950531 0.242096 0.036224
0.985748 0.239594 0.036652
0.058899 0.348053 0.027130
0.092987 0.348053 0.027130
0.126465 0.348053 0.027130
0.159424 0.348053 0.027130
0.191833 0.348053 0.027130
0.223694 0.348053 0.027130
0.255066 0.348053 0.027130
0.285797 0.348053 0.027130
0.310516 0.342682 0.027130
0.329376 0.331818 0.027130
0.348053 0.320831 0.027130
0.377533 0.318512 0.027557
0.406403 0.316132 0.028015
0.434753 0.313751 0.028473
0.462524 0.311401 0.028931
0.489716 0.309021 0.029388
0.516602 0.306641 0.029846
0.543945 0.304260 0.030273
0.571808 0.301910 0.030731
0.600311 0.299530 0.031219
0.629333 0.297119 0.031647
0.658905 0.294708 0.032104
0.689026 0.292358 0.032532
0.719788 0.289948 0.033020
0.751068 0.287567 0.033508
0.782867 0.285126 0.033936
0.815277 0.282684 0.034393
0.848236 0.280334 0.034851
0.881775 0.277924 0.035278
0.915894 0.275452 0.035767
0.950531 0.273010 0.036224
0.985748 0.270599 0.036652
0.062500 0.377533 0.027557
0.096497 0.377533 0.027557
0.129974 0.377533 0.027557
0.162872 0.377533 0.027557
0.195221 0.377533 0.027557
0.227051 0.377533 0.027557
0.258301 0.377533 0.027557
0.288971 0.377533 0.027557
0.319183 0.377533 0.027557
0.340668 0.369568 0.027557
0.359192 0.358856 0.027557
0.377533 0.348114 0.027557
0.406403 0.345825 0.028015
0.434753 0.343475 0.028473
0.462524 0.341156 0.028931
0.489716 0.338837 0.029388
0.516602 0.336487 0.029846
0.543945 0.334137 0.030273
0.571808 0.331848 0.030731
0.600311 0.329437 0.031219
0.629333 0.327148 0.031647
0.658905 0.324829 0.032104
0.689026 0.322449 0.032532
0.719788 0.320099 0.033020
0.751068 0.317719 0.033508
0.782867 0.315369 0.033936
0.815277 0.313019 0.034393
0.848236 0.310669 0.034851
0.881775 0.308258 0.035278
0.915894 0.305939 0.035767
0.950531 0.303528 0.036224
0.985748 0.301086 0.036652
0.066101 0.406403 0.028015
0.100006 0.406403 0.028015
0.133453 0.406403 0.028015
0.166290 0.406403 0.028015
0.198608 0.406403 0.028015
0.230347 0.406403 0.028015
0.261536 0.406403 0.028015
0.292175 0.406403 0.028015
0.322327 0.406403 0.028015
0.351868 0.406403 0.028015
0.370270 0.395996 0.028015
0.388458 0.385498 0.028015
0.406403 0.374908 0.028015
0.434753 0.372620 0.028473
0.462524 0.370361 0.028931
0.489716 0.368103 0.029388
0.516602 0.365814 0.029846
0.543945 0.363495 0.030273
0.571808 0.361237 0.030731
0.600311 0.358917 0.031219
0.629333 0.356628 0.031647
0.658905 0.354309 0.032104
0.689026 0.351990 0.032532
0.719788 0.349670 0.033020
0.751068 0.347382 0.033508
0.782867 0.345062 0.033936
0.815277 0.342712 0.034393
0.848236 0.340393 0.034851
0.881775 0.338043 0.035278
0.915894 0.335754 0.035767
0.950531 0.333374 0.036224
0.985748 0.331116 0.036652
0.069672 0.434753 0.028473
0.103607 0.434753 0.028473
0.136902 0.434753 0.028473
0.169708 0.434753 0.028473
0.201935 0.434753 0.028473
0.233612 0.434753 0.028473
0.264740 0.434753 0.028473
0.295380 0.434753 0.028473
0.325439 0.434753 0.028473
0.354919 0.434753 0.028473
0.381256 0.432190 0.028473
0.399292 0.421967 0.028473
0.417114 0.411621 0.028473
0.434753 0.401245 0.028473
0.462524 0.399017 0.028931
0.489716 0.396790 0.029388
0.516602 0.394531 0.029846
0.543945 0.392273 0.030273
0.571808 0.390045 0.030731
0.600311 0.387756 0.031219
0.629333 0.385498 0.031647
0.658905 0.383301 0.032104
0.689026 0.380981 0.032532
0.719788 0.378723 0.033020
0.751068 0.376495 0.033508
0.782867 0.374207 0.033936
0.815277 0.371918 0.034393
0.848236 0.369629 0.034851
0.881775 0.367340 0.035278
0.915894 0.365051 0.035767
0.950531 0.362793 0.036224
0.985748 0.360504 0.036652
0.073273 0.462524 0.028931
0.107147 0.462524 0.028931
0.140381 0.462524 0.028931
0.173126 0.462524 0.028931
0.205322 0.462524 0.028931
0.236969 0.462524 0.028931
0.268005 0.462524 0.028931
0.298584 0.462524 0.028931
0.328583 0.462524 0.028931
0.358002 0.462524 0.028931
0.386902 0.462524 0.028931
0.410065 0.457489 0.028931
0.427765 0.447449 0.028931
0.445251 0.437347 0.028931
0.462524 0.427124 0.028931
0.489716 0.424927 0.029388
0.516602 0.422729 0.029846
0.543945 0.420502 0.030273
0.571808 0.418335 0.030731
0.600311 0.416107 0.031219
0.629333 0.413879 0.031647
0.658905 0.411713 0.032104
0.689026 0.409424 0.032532
0.719788 0.407227 0.033020
0.751068 0.404999 0.033508
0.782867 0.402802 0.033936
0.815277 0.400513 0.034393
0.848236 0.398346 0.034851
0.881775 0.396088 0.035278
0.915894 0.393799 0.035767
0.950531 0.391541 0.036224
0.985748 0.389343 0.036652
0.076843 0.489716 0.029388
0.110626 0.489716 0.029388
0.143829 0.489716 0.029388
0.176514 0.489716 0.029388
0.208618 0.489716 0.029388
0.240204 0.489716 0.029388
0.271240 0.489716 0.029388
0.301727 0.489716 0.029388
0.331696 0.489716 0.029388
0.361084 0.489716 0.029388
0.389893 0.489716 0.029388
0.418213 0.489716 0.029388
0.438324 0.482361 0.029388
0.455688 0.472504 0.029388
0.472809 0.462585 0.029388
0.489716 0.452545 0.029388
0.516602 0.450409 0.029846
0.543945 0.448212 0.030273
0.571808 0.446045 0.030731
0.600311 0.443878 0.031219
0.629333 0.441711 0.031647
0.658905 0.439575 0.032104
0.689026 0.437408 0.032532
0.719788 0.435181 0.033020
0.751068 0.433014 0.033508
0.782867 0.430786 0.033936
0.815277 0.428619 0.034393
0.848236 0.426392 0.034851
0.881775 0.424194 0.035278
0.915894 0.421997 0.035767
0.950531 0.419830 0.036224
0.985748 0.417603 0.036652
0.080414 0.516602 0.029846
0.114136 0.516602 0.029846
0.147339 0.516602 0.029846
0.179932 0.516602 0.029846
0.212006 0.516602 0.029846
0.243530 0.516602 0.029846
0.274506 0.516602 0.029846
0.304901 0.516602 0.029846
0.334808 0.516602 0.029846
0.364105 0.516602 0.029846
0.392883 0.516602 0.029846
0.421143 0.516602 0.029846
0.448822 0.516602 0.029846
0.466034 0.506805 0.029846
0.483032 0.497101 0.029846
0.499817 0.487305 0.029846
0.516602 0.477509 0.029846
0.543945 0.475403 0.030273
0.571808 0.473297 0.030731
0.600311 0.471161 0.031219
0.629333 0.469055 0.031647
0.658905 0.466888 0.032104
0.689026 0.464752 0.032532
0.719788 0.462616 0.033020
0.751068 0.460480 0.033508
0.782867 0.458374 0.033936
0.815277 0.456207 0.034393
0.848236 0.453979 0.034851
0.881775 0.451874 0.035278
0.915894 0.449707 0.035767
0.950531 0.447571 0.036224
0.985748 0.445374 0.036652
0.084015 0.543945 0.030273
0.117645 0.543945 0.030273
0.150757 0.543945 0.030273
0.183350 0.543945 0.030273
0.215363 0.543945 0.030273
0.246796 0.543945 0.030273
0.277740 0.543945 0.030273
0.308044 0.543945 0.030273
0.337860 0.543945 0.030273
0.367157 0.543945 0.030273
0.395905 0.543945 0.030273
0.424042 0.543945 0.030273
0.451660 0.543945 0.030273
0.476288 0.541443 0.030273
0.493164 0.531464 0.030273
0.509888 0.521576 0.030273
0.526794 0.511749 0.030273
0.543945 0.502014 0.030273
0.571808 0.499908 0.030731
0.600311 0.497833 0.031219
0.629333 0.495758 0.031647
0.658905 0.493652 0.032104
0.689026 0.491547 0.032532
0.719788 0.489502 0.033020
0.751068 0.487335 0.033508
0.782867 0.485229 0.033936
0.815277 0.483154 0.034393
0.848236 0.481049 0.034851
0.881775 0.478943 0.035278
0.915894 0.476807 0.035767
0.950531 0.474731 0.036224
0.985748 0.472595 0.036652
0.087585 0.571808 0.030731
0.121185 0.571808 0.030731
0.154205 0.571808 0.030731
0.186737 0.571808 0.030731
0.218658 0.571808 0.030731
0.250061 0.571808 0.030731
0.280914 0.571808 0.030731
0.311218 0.571808 0.030731
0.340973 0.571808 0.030731
0.370209 0.571808 0.030731
0.398895 0.571808 0.030731
0.427002 0.571808 0.030731
0.454559 0.571808 0.030731
0.481567 0.571808 0.030731
0.503265 0.566711 0.030731
0.520050 0.556580 0.030731
0.537109 0.546478 0.030731
0.554352 0.536499 0.030731
0.571808 0.526520 0.030731
0.600311 0.524414 0.031219
0.629333 0.522278 0.031647
0.658905 0.520203 0.032104
0.689026 0.518066 0.032532
0.719788 0.515991 0.033020
0.751068 0.513885 0.033508
0.782867 0.511749 0.033936
0.815277 0.509705 0.034393
0.848236 0.507599 0.034851
0.881775 0.505463 0.035278
0.915894 0.503387 0.035767
0.950531 0.501343 0.036224
0.985748 0.499237 0.036652
0.091095 0.600311 0.031219
0.124664 0.600311 0.031219
0.157654 0.600311 0.031219
0.190125 0.600311 0.031219
0.221985 0.600311 0.031219
0.253326 0.600311 0.031219
0.284119 0.600311 0.031219
0.314392 0.600311 0.031219
0.344055 0.600311 0.031219
0.373230 0.600311 0.031219
0.401855 0.600311 0.031219
0.429871 0.600311 0.031219
0.457428 0.600311 0.031219
0.484344 0.600311 0.031219
0.510864 0.600311 0.031219
0.530273 0.592529 0.031219
0.547455 0.582153 0.031219
0.564850 0.571838 0.031219
0.582458 0.561707 0.031219
0.600311 0.551544 0.031219
0.629333 0.549377 0.031647
0.658905 0.547241 0.032104
0.689026 0.545105 0.032532
0.719788 0.542999 0.033020
0.751068 0.540833 0.033508
0.782867 0.538666 0.033936
0.815277 0.536499 0.034393
0.848236 0.534363 0.034851
0.881775 0.532257 0.035278
0.915894 0.530121 0.035767
0.950531 0.527985 0.036224
0.985748 0.525818 0.036652
0.094666 0.629333 0.031647
0.128174 0.629333 0.031647
0.161133 0.629333 0.031647
0.193451 0.629333 0.031647
0.225311 0.629333 0.031647
0.256592 0.629333 0.031647
0.287354 0.629333 0.031647
0.317566 0.629333 0.031647
0.347137 0.629333 0.031647
0.376251 0.629333 0.031647
0.404846 0.629333 0.031647
0.432831 0.629333 0.031647
0.460266 0.629333 0.031647
0.487152 0.629333 0.031647
0.513672 0.629333 0.031647
0.540619 0.629333 0.031647
0.557922 0.618683 0.031647
0.575439 0.608154 0.031647
0.593170 0.597778 0.031647
0.611145 0.587372 0.031647
0.629333 0.577057 0.031647
0.658905 0.574860 0.032104
0.689026 0.572693 0.032532
0.719788 0.570496 0.033020
0.751068 0.568268 0.033508
0.782867 0.566101 0.033936
0.815277 0.563904 0.034393
0.848236 0.561707 0.034851
0.881775 0.559570 0.035278
0.915894 0.557373 0.035767
0.950531 0.555237 0.036224
0.985748 0.553070 0.036652
0.098236 0.658905 0.032104
0.131622 0.658905 0.032104
0.164520 0.658905 0.032104
0.196808 0.658905 0.032104
0.228607 0.658905 0.032104
0.259827 0.658905 0.032104
0.290527 0.658905 0.032104
0.320648 0.658905 0.032104
0.350220 0.658905 0.032104
0.379272 0.658905 0.032104
0.407745 0.658905 0.032104
0.435760 0.658905 0.032104
0.463135 0.658905 0.032104
0.489990 0.658905 0.032104
0.516510 0.658905 0.032104
0.543457 0.658905 0.032104
0.568451 0.656189 0.032104
0.586121 0.645386 0.032104
0.603973 0.634674 0.032104
0.622070 0.624054 0.032104
0.640411 0.613464 0.032104
0.658905 0.602997 0.032104
0.689026 0.600769 0.032532
0.719788 0.598511 0.033020
0.751068 0.596283 0.033508
0.782867 0.594055 0.033936
0.815277 0.591797 0.034393
0.848236 0.589630 0.034851
0.881775 0.587402 0.035278
0.915894 0.585175 0.035767
0.950531 0.582947 0.036224
0.985748 0.580780 0.036652
0.101715 0.689026 0.032532
0.135101 0.689026 0.032532
0.167908 0.689026 0.032532
0.200195 0.689026 0.032532
0.231934 0.689026 0.032532
0.263092 0.689026 0.032532
0.293701 0.689026 0.032532
0.323761 0.689026 0.032532
0.353302 0.689026 0.032532
0.382324 0.689026 0.032532
0.410736 0.689026 0.032532
0.438629 0.689026 0.032532
0.465942 0.689026 0.032532
0.492737 0.689026 0.032532
0.519257 0.689026 0.032532
0.546326 0.689026 0.032532
0.573914 0.689026 0.032532
0.596832 0.683533 0.032532
0.614838 0.672577 0.032532
0.633057 0.661621 0.032532
0.651520 0.650818 0.032532
0.670166 0.640076 0.032532
0.689026 0.629395 0.032532
0.719788 0.627136 0.033020
0.751068 0.624878 0.033508
0.782867 0.622528 0.033936
0.815277 0.620331 0.034393
0.848236 0.618011 0.034851
0.881775 0.615784 0.035278
0.915894 0.613495 0.035767
0.950531 0.611298 0.036224
0.985748 0.609039 0.036652
0.105286 0.719788 0.033020
0.138580 0.719788 0.033020
0.171326 0.719788 0.033020
0.203552 0.719788 0.033020
0.235199 0.719788 0.033020
0.266296 0.719788 0.033020
0.296875 0.719788 0.033020
0.326965 0.719788 0.033020
0.356415 0.719788 0.033020
0.385376 0.719788 0.033020
0.413727 0.719788 0.033020
0.441528 0.719788 0.033020
0.468842 0.719788 0.033020
0.495514 0.719788 0.033020
0.522095 0.719788 0.033020
0.549164 0.719788 0.033020
0.576813 0.719788 0.033020
0.605072 0.719788 0.033020
0.625793 0.711365 0.033020
0.644135 0.700165 0.033020
0.662750 0.689087 0.033020
0.681519 0.678101 0.033020
0.700531 0.667175 0.033020
0.719788 0.656281 0.033020
0.751068 0.653961 0.033508
0.782867 0.651642 0.033936
0.815277 0.649292 0.034393
0.848236 0.647034 0.034851
0.881775 0.644775 0.035278
0.915894 0.642487 0.035767
0.950531 0.640106 0.036224
0.985748 0.637817 0.036652
0.108795 0.751068 0.033508
0.142090 0.751068 0.033508
0.174744 0.751068 0.033508
0.206909 0.751068 0.033508
0.238525 0.751068 0.033508
0.269531 0.751068 0.033508
0.300110 0.751068 0.033508
0.330078 0.751068 0.033508
0.359467 0.751068 0.033508
0.388336 0.751068 0.033508
0.416687 0.751068 0.033508
0.444397 0.751068 0.033508
0.471649 0.751068 0.033508
0.498322 0.751068 0.033508
0.524933 0.751068 0.033508
0.552094 0.751068 0.033508
0.579803 0.751068 0.033508
0.608002 0.751068 0.033508
0.636841 0.751068 0.033508
0.655334 0.739624 0.033508
0.674011 0.728333 0.033508
0.692963 0.717010 0.033508
0.712097 0.705811 0.033508
0.731476 0.694733 0.033508
0.751068 0.683655 0.033508
0.782867 0.681274 0.033936
0.815277 0.678925 0.034393
0.848236 0.676605 0.034851
0.881775 0.674225 0.035278
0.915894 0.671906 0.035767
0.950531 0.669556 0.036224
0.985748 0.667206 0.036652
0.112335 0.782867 0.033936
0.145538 0.782867 0.033936
0.178192 0.782867 0.033936
0.210297 0.782867 0.033936
0.241791 0.782867 0.033936
0.272797 0.782867 0.033936
0.303223 0.782867 0.033936
0.333191 0.782867 0.033936
0.362549 0.782867 0.033936
0.391388 0.782867 0.033936
0.419556 0.782867 0.033936
0.447296 0.782867 0.033936
0.474457 0.782867 0.033936
0.501099 0.782867 0.033936
0.527771 0.782867 0.033936
0.554901 0.782867 0.033936
0.582764 0.782867 0.033936
0.611023 0.782867 0.033936
0.639862 0.782867 0.033936
0.666565 0.779968 0.033936
0.685425 0.768372 0.033936
0.704468 0.756805 0.033936
0.723724 0.745422 0.033936
0.743256 0.734039 0.033936
0.762939 0.722687 0.033936
0.782867 0.711487 0.033936
0.815277 0.709045 0.034393
0.848236 0.706696 0.034851
0.881775 0.704254 0.035278
0.915894 0.701874 0.035767
0.950531 0.699463 0.036224
0.985748 0.697083 0.036652
0.115845 0.815277 0.034393
0.149017 0.815277 0.034393
0.181549 0.815277 0.034393
0.213623 0.815277 0.034393
0.245087 0.815277 0.034393
0.276062 0.815277 0.034393
0.306396 0.815277 0.034393
0.336304 0.815277 0.034393
0.365570 0.815277 0.034393
0.394318 0.815277 0.034393
0.422485 0.815277 0.034393
0.450165 0.815277 0.034393
0.477264 0.815277 0.034393
0.503845 0.815277 0.034393
0.530548 0.815277 0.034393
0.557831 0.815277 0.034393
0.585693 0.815277 0.034393
0.614014 0.815277 0.034393
0.642944 0.815277 0.034393
0.672394 0.815277 0.034393
0.696838 0.809357 0.034393
0.716034 0.797607 0.034393
0.735474 0.785828 0.034393
0.755096 0.774231 0.034393
0.774933 0.762634 0.034393
0.795013 0.751190 0.034393
0.815277 0.739716 0.034393
0.848236 0.737274 0.034851
0.881775 0.734833 0.035278
0.915894 0.732422 0.035767
0.950531 0.730011 0.036224
0.985748 0.727539 0.036652
0.119324 0.848236 0.034851
0.152435 0.848236 0.034851
0.184906 0.848236 0.034851
0.216949 0.848236 0.034851
0.248383 0.848236 0.034851
0.279266 0.848236 0.034851
0.309570 0.848236 0.034851
0.339386 0.848236 0.034851
0.368652 0.848236 0.034851
0.397278 0.848236 0.034851
0.425446 0.848236 0.034851
0.453094 0.848236 0.034851
0.480103 0.848236 0.034851
0.506622 0.848236 0.034851
0.533417 0.848236 0.034851
0.560699 0.848236 0.034851
0.588623 0.848236 0.034851
0.617035 0.848236 0.034851
